Adwaita++-Dark/mimetypes/16/application-software.svg

<svg height="16" viewBox="0 0 16 16" width="16" xmlns="http://www.w3.org/2000/svg">
  <path d="m14.666282 15.619777c-.149521-.022124-.276408-.088492-.379139-.198851-.226312-.242842-.598838-.956617-.904234-1.7332-.17164-.436096-.499921-1.396273-.499921-1.461877 0-.020597.216649-.16376.481359-.317855l.481359-.280222.075524.070691c.299036.28073 1.159788 1.566644 1.661744 2.48232.200885.36617.220974.418298.22021.569342-.001017.201138-.064334.341504-.243348.540607-.214362.238519-.584092.37456-.893554.329045zm-14.306272-.239027c.009154-.024666.155622-.685296.325738-1.468491.169861-.782941.312769-1.428312.317346-1.434161.015257-.019581 1.55342 1.059347 1.552912 1.089608 0 .016527-.444743.398461-.987893.849053-1.223106 1.014593-1.228192 1.018661-1.208103.963991zm1.628943-2.762541c-.428469-.296241-.77582-.551288-.771752-.566546.010172-.036362 3.69195-6.268863 3.722209-6.300394.016782-.017546 1.625637.993997 1.700906 1.069264.016274.016275-3.811718 6.322517-3.842232 6.329637-.016274.003814-.380408-.235466-.809131-.531961zm10.105245-1.646999c-.293952-.495344-.529928-.903469-.524587-.907285.052383-.03687 1.165638-.676903 1.177588-.676903.018308 0 .953057 1.861359.939325 1.871022-.12053.084167-1.012559.616129-1.031629.615113-.014494-.000765-.266999-.4066-.560697-.901947zm-12.082557-.093321c-.010172-.086458-.014494-.783958-.009663-1.549861l.009154-1.392459 1.54325.009663c.849054.004577 1.547063.012459 1.551386.016782.004323.003814-.404057.697502-.907794 1.540708l-.915676 1.532824h-.626048-.626046zm4.629748.112902c0-.007628.41906-.702333.931443-1.543249l.931696-1.52901h1.653609 1.653354l.883891 1.47205c.486191.80964.901182 1.504344.922288 1.543504l.038397.071199h-3.507339c-1.928998 0-3.507339-.006866-3.507339-.014494zm9.022251-.652239c-.178-.366932-.513147-1.054769-.744544-1.528501l-.421094-.861769h1.144024c.629352 0 1.417124-.008645 1.750998-.019833l.606976-.01958v1.548336 1.54808h-1.006456-1.006202zm-2.554284-.989164c-.677665-1.067484-1.368047-2.321867-2.197522-3.993277-.658086-1.32609-1.291508-2.696934-1.552912-3.361125-.378628-.96221-.469154-1.56054-.244366-1.616737.359557-.090271 1.06316.726235 2.065039 2.396118.78472 1.308037 2.040376 3.593795 2.998263 5.458714.177998.346081.355235.685295.393885.753697l.070437.1246-.597059.347606c-.328281.190967-.607993.347607-.62147.347607-.013222 0-.154858-.205717-.314295-.457203zm-5.187647-3.308236-.832525-.548744.078573-.124598c.043229-.068404.261404-.416009.484666-.772516.223261-.356252.409396-.652239.413719-.657323.004323-.004831.379138.235211.833289.533996l.82566.543659-.123073.200122c-.067386.110105-.270813.442962-.451609.739711-.18105.296495-.3443.560697-.362608.586887-.028989.041195-.14774-.027461-.866092-.501194zm1.062399-1.782021c-.431267-.281747-.784467-.525605-.784467-.541879 0-.119005.356761-.449574.532471-.49382.289375-.072471.763614.112902 1.02807.402024.20419.223515.248945.332858.229873.561712-.014494.172659-.155113.584345-.199867.584345-.011952 0-.374561-.23038-.80608-.512382z" fill="#e6ddff"/>
</svg>

<svg xmlns="http://www.w3.org/2000/svg" style="isolation:isolate" width="16" height="16" viewBox="0 0 16 16">
 <defs>
  <style id="current-color-scheme" type="text/css">
   .ColorScheme-Text { color:#E6DDFF; } .ColorScheme-Highlight { color:#5294e2; }
  </style>
  <linearGradient id="arrongin" x1="0%" x2="0%" y1="0%" y2="100%">
   <stop offset="0%" style="stop-color:#dd9b44"/>
   <stop offset="100%" style="stop-color:#ad6c16"/>
  </linearGradient>
  <linearGradient id="aurora" x1="0%" x2="0%" y1="0%" y2="100%">
   <stop offset="0%" style="stop-color:#09D4DF"/>
   <stop offset="100%" style="stop-color:#9269F4"/>
  </linearGradient>
  <linearGradient id="fitdance" x1="0%" x2="0%" y1="0%" y2="100%">
   <stop offset="0%" style="stop-color:#1AD6AB"/>
   <stop offset="100%" style="stop-color:#329DB6"/>
  </linearGradient>
  <linearGradient id="oomox" x1="0%" x2="0%" y1="0%" y2="100%">
   <stop offset="0%" style="stop-color:#efefe7"/>
   <stop offset="100%" style="stop-color:#8f8f8b"/>
  </linearGradient>
  <linearGradient id="rainblue" x1="0%" x2="0%" y1="0%" y2="100%">
   <stop offset="0%" style="stop-color:#00F260"/>
   <stop offset="100%" style="stop-color:#0575E6"/>
  </linearGradient>
  <linearGradient id="sunrise" x1="0%" x2="0%" y1="0%" y2="100%">
   <stop offset="0%" style="stop-color:#FF8501"/>
   <stop offset="100%" style="stop-color:#FFCB01"/>
  </linearGradient>
  <linearGradient id="telinkrin" x1="0%" x2="0%" y1="0%" y2="100%">
   <stop offset="0%" style="stop-color:#b2ced6"/>
   <stop offset="100%" style="stop-color:#6da5b7"/>
  </linearGradient>
  <linearGradient id="60spsycho" x1="0%" x2="0%" y1="0%" y2="100%">
   <stop offset="0%" style="stop-color:#df5940"/>
   <stop offset="25%" style="stop-color:#d8d15f"/>
   <stop offset="50%" style="stop-color:#e9882a"/>
   <stop offset="100%" style="stop-color:#279362"/>
  </linearGradient>
  <linearGradient id="90ssummer" x1="0%" x2="0%" y1="0%" y2="100%">
   <stop offset="0%" style="stop-color:#f618c7"/>
   <stop offset="20%" style="stop-color:#94ffab"/>
   <stop offset="50%" style="stop-color:#fbfd54"/>
   <stop offset="100%" style="stop-color:#0f83ae"/>
  </linearGradient>
  <linearGradient id="cyberneon" x1="0%" x2="0%" y1="0%" y2="100%">
   <stop offset="0" style="stop-color:#0abdc6"/>
   <stop offset="1" style="stop-color:#ea00d9"/>
  </linearGradient>
 </defs>
 <path style="fill:currentColor" class="ColorScheme-Text" d="M 14.666282 15.619777 C 14.516761 15.597653 14.389874 15.531285 14.287143 15.420926 C 14.060831 15.178084 13.688305 14.464309 13.382909 13.687726 C 13.211269 13.25163 12.882988 12.291453 12.882988 12.225849 C 12.882988 12.205252 13.099637 12.062089 13.364347 11.907994 L 13.845706 11.627772 L 13.92123 11.698463 C 14.220266 11.979193 15.081018 13.265107 15.582974 14.180783 C 15.783859 14.546953 15.803948 14.599081 15.803184 14.750125 C 15.802167 14.951263 15.73885 15.091629 15.559836 15.290732 C 15.345474 15.529251 14.975744 15.665292 14.666282 15.619777 L 14.666282 15.619777 Z M 0.36001 15.38075 C 0.369164 15.356084 0.515632 14.695454 0.685748 13.912259 C 0.855609 13.129318 0.998517 12.483947 1.003094 12.478098 C 1.018351 12.458517 2.556514 13.537445 2.556006 13.567706 C 2.556006 13.584233 2.111263 13.966167 1.568113 14.416759 C 0.345007 15.431352 0.339921 15.43542 0.36001 15.38075 Z M 1.988953 12.618209 C 1.560484 12.321968 1.213133 12.066921 1.217201 12.051663 C 1.227373 12.015301 4.909151 5.7828 4.93941 5.751269 C 4.956192 5.733723 6.565047 6.745266 6.640316 6.820533 C 6.65659 6.836808 2.828598 13.14305 2.798084 13.15017 C 2.78181 13.153984 2.417676 12.914704 1.988953 12.618209 Z M 12.094198 10.97121 C 11.800246 10.475866 11.56427 10.067741 11.569611 10.063925 C 11.621994 10.027055 12.735249 9.387022 12.747199 9.387022 C 12.765507 9.387022 13.700256 11.248381 13.686524 11.258044 C 13.565994 11.342211 12.673965 11.874173 12.654895 11.873157 C 12.640401 11.872392 12.387896 11.466557 12.094198 10.97121 L 12.094198 10.97121 Z M 0.011641 10.877889 C 0.001469 10.791431 -0.002853 10.093931 0.001978 9.328028 L 0.011132 7.935569 L 1.554382 7.945232 C 2.403436 7.949809 3.101445 7.957691 3.105768 7.962014 C 3.110091 7.965828 2.701711 8.659516 2.197974 9.502722 L 1.282298 11.035546 L 0.65625 11.035546 L 0.030204 11.035546 L 0.011641 10.877889 Z M 4.641389 10.990791 C 4.641389 10.983163 5.060449 10.288458 5.572832 9.447542 L 6.504528 7.918532 L 8.158137 7.918532 L 9.811491 7.918532 L 10.695382 9.390582 C 11.181573 10.200222 11.596564 10.894926 11.61767 10.934086 L 11.656067 11.005285 L 8.148728 11.005285 C 6.21973 11.005285 4.641389 10.998419 4.641389 10.990791 L 4.641389 10.990791 Z M 13.66364 10.338552 C 13.48564 9.97162 13.150493 9.283783 12.919096 8.810051 L 12.498002 7.948282 L 13.642026 7.948282 C 14.271378 7.948282 15.05915 7.939637 15.393024 7.928449 L 16 7.908869 L 16 9.457205 L 16 11.005285 L 14.993544 11.005285 L 13.987342 11.005285 L 13.66364 10.338552 L 13.66364 10.338552 Z M 11.109356 9.349388 C 10.431691 8.281904 9.741309 7.027521 8.911834 5.356111 C 8.253748 4.030021 7.620326 2.659177 7.358922 1.994986 C 6.980294 1.032776 6.889768 0.434446 7.114556 0.378249 C 7.474113 0.287978 8.177716 1.104484 9.179595 2.774367 C 9.964315 4.082404 11.219971 6.368162 12.177858 8.233081 C 12.355856 8.579162 12.533093 8.918376 12.571743 8.986778 L 12.64218 9.111378 L 12.045121 9.458984 C 11.71684 9.649951 11.437128 9.806591 11.423651 9.806591 C 11.410429 9.806591 11.268793 9.600874 11.109356 9.349388 L 11.109356 9.349388 Z M 5.921709 6.041152 L 5.089184 5.492408 L 5.167757 5.36781 C 5.210986 5.299406 5.429161 4.951801 5.652423 4.595294 C 5.875684 4.239042 6.061819 3.943055 6.066142 3.937971 C 6.070465 3.93314 6.44528 4.173182 6.899431 4.471967 L 7.725091 5.015626 L 7.602018 5.215748 C 7.534632 5.325853 7.331205 5.65871 7.150409 5.955459 C 6.969359 6.251954 6.806109 6.516156 6.787801 6.542346 C 6.758812 6.583541 6.640061 6.514885 5.921709 6.041152 L 5.921709 6.041152 Z M 6.984108 4.259131 C 6.552841 3.977384 6.199641 3.733526 6.199641 3.717252 C 6.199641 3.598247 6.556402 3.267678 6.732112 3.223432 C 7.021487 3.150961 7.495726 3.336334 7.760182 3.625456 C 7.964372 3.848971 8.009127 3.958314 7.990055 4.187168 C 7.975561 4.359827 7.834942 4.771513 7.790188 4.771513 C 7.778236 4.771513 7.415627 4.541133 6.984108 4.259131 L 6.984108 4.259131 Z"/>
</svg>
